X: 4241
T: DENIS, DON'T BE THREATENING
%R: jig
B: James Kerr "Merry Melodies" v.4 p.26 #241
Z: 2016 John Chambers <jc:trillian.mit.edu>
M: 6/8
L: 1/8
K: Bb
B |\
AGF GAB | A2F F2F | B2B cde | d2B B2B |\
AGF FGF | A2F F2F | B2B cde | d2B B2 :|
|: c |\
ded d2B | cdc c2B | AGF FGA | c2B B2B |\
ded d2B | cdc c2B | AGF FGA | c2B B2 :|

%%sep 1 1 500
%%sep 1 1 500

